**kern
*clefF4
*k[]
*M3/4
=1-
4D
(2D
=2
16C 16AA 16FF)
4BB
16BB
(8C
8C 8AA
16BB 16GG)
16C 16AA
=3
8C
2D- 2BB
8C
=4
4D
2D#
=5
4E
2r
=6
8F
2G
8A
=7
2B
4B-
=8
4A
(16B
8c)
4r
(16B#
=9
4A)
16B 16G
16A-
4A-
16B
16An
=10
2G
16F
8G
16G 16E 16C
=11
*-